X: 52112
P: Stewart Adam - Bon Viveur
C: Iain T MacPhail
S: RSCDS 52-11 #2
M: 4/4
L: 1/8
K: A
cd |:\
"A"eBcd cBAB | "C"=cBA=G E2"A"E"E7"D |\
"A"CEAc "C#/A"EAce | "Em"Bee^d "E7"e2c=d |
"A"eBcd cBAB | "C"=cBA=G E2"A"E"E7"D |\
"A"CEAc "E7"^GBed |1 "A"cAA^G A2"E7"cd :|2 "A7"cAA^GA2=G2 ||
|:\
"D"(3FGF ^EF dEFd | "C#/A"(3EFE ^DE cEAc |\
"Em"EBBE "E7"EBB2 | "A7"EccE Ecc2 |
"D"(3FGF ^EF dEFd | "C#/A"(3EFE ^DE cEAc |\
"Em"EBBE "E7"GBed |1 "A7"cAA^G A2=G2 :|2 "A"cAA^G A2 |]
%
%%begintext align
%% Note: The tune Wing Commander Donald Mackenzie's Reel (Phil Cunningham)
%% was originally proposed by the deviser for the reel.
%%endtext
